X: 1
T: Not Far From Blarney
M: 6/8
L: 1/8
R: jig
K: Gmaj
def gfg | cef gfg | def gfg | aec d2 A |
def gfg | cef gfg | aec def | gec d2 A ||
FGA cAG | AED DED | FGA cAG | AGF G2 A |
FGA cAG | AED DED | dAF GAB | cAF G2 A ||
